X: 64
T: Królu na ziemi i na wielkim niebie,
C: Mikołaj Gomółka
%%abc-version 2.0
%%abcx-abcm2ps-target-version 5.9.1 (29 Sep 2008)
%%abc-creator hum2abc beta
%%abcx-conversion-date 2021/10/04 07:59:10
%%abc-edited-by Marta Lawrence
%%abcx-initial-encoding-date 2020-02-11
%%humdrum-veritas 3059795793
%%humdrum-veritas-data 2957910122
%%linebreak <none>
%%barnumbers 0
L: 1/4
M: C|
N: Derived from pl-wn--sd-xvi-qu-273--065_gomolka-mikolaj--krolu-na-ziemi-i-na-wielkim-niebie.krn
%%staves [1 2 3 4]
V: 1 clef=treble
V: 2
V: 3 clef=alto
V: 4
K: Bb
[V:1] D8 [|] 
[V:2] A,8 [|] 
[V:3] F,8 [|] 
[V:4] D,8 [|] 
[V:1] =E4F6 [|] 
[V:2] C4D6 [|] 
[V:3] G,4B,6 [|] 
[V:4] C,4B,,3C, [|] 
[V:1] F2F2f2 [|] 
[V:2] D2D2F2 [|] 
[V:3] A,2A,2D2 [|] 
[V:4] D,4D,2B,2 [|] 
[V:1] d2d=ef2f2 [|] 
[V:2] B4B3A [|] 
[V:3] F2>=E2D2D2 [|] 
[V:4] D2>C2B,2B,2 [|] 
[V:1] =e2c2c2c2 [|] 
[V:2] G2G2A2F2 [|] 
[V:3] =E2E2F2C2 [|] 
[V:4] C2C2F,2F,2 [|] 
[V:1] c2>B2A2d2 [|] 
[V:2] =E2C2C2G2 [|] 
[V:3] C2G,2A,2B,4 [|] 
[V:4] C,4F,2G,2 [|] 
[V:1] _e4d2d2 [|] 
[V:2] G4F2B2 [|] 
[V:3] C2D3C [|] 
[V:4] =E,4B,,3C, [|] 
[V:1] d2c2d2d2 [|] 
[V:2] F2>=E2D2F2 [|] 
[V:3] B,2A,2B,2B,2 [|] 
[V:4] D,=E,F,2B,,2B,,2 [|] 
[V:1] B2c2d4 [|] 
[V:2] G2G2G3F [|] 
[V:3] B,2=E2D4 [|] 
[V:4] =E,2C,2G,,4 [|] 
[V:1] =e2c4A2 [|] 
[V:2] =E2F4F2 [|] 
[V:3] C2A,2>B,2C2 [|] 
[V:4] C,2F,4F,2 [|] 
[V:1] B2c2B4 [|] 
[V:2] =E2C2D/E/F2E [|] 
[V:3] B,2=E2D2CB, [|] 
[V:4] G,2A,2B,2G,2 [|] 
[V:1] A2F2GAB4 [|] 
[V:2] F2BAGFG2 [|] 
[V:3] C2F2=E3D [|] 
[V:4] F,2D,2_E,2E,2 [|] 
[V:1] A2B32 |]  
[V:2] F2>=E2D32 |]  
[V:3] CB,C2B,32 |]  
[V:4] F,4B,,32 |]  


